X: 8
T:Christie Campbell
M:4/4
L:1/8
S:from Boston Scottish Fiddle Club collection
R:Strathspey
O:Cape Breton
K:A
c>B|"A"A>G F<D E<F E>C|"A"[A,E>]f e>c "E"B>A B<c|"A"A>G F<D E<F E>C|"E"E
>F G<E "A"A2 A>B|!
"A"A>G F<D E<F E>C|"A"[A,E>]f e>c "E"B>A B<c|"D"d>e (3fec "E"B>A B>d|"E"
A<F G<E "A"A2||!
A>F|"A"[A,E>]e e/e/e "D"f<d "A"e>c|"Bm"B>c d<e "G"=g2 f<a|"A"e>d c>e "D"
f<a "A"e<c|
"D"B<c d/c/B/A/ "E"F2 (3FFF|!
"A"[A,E>]e e/e/e "D"f<d "A"e>c|"Bm"B>c d<e "G"=g2 f>g|"A"(3aee c>e (3aee
 c>A|
"D"(3dcB (3cBA "E"F2||
